X: 10211
T: Dirty Trousers
R: reel
M: 4/4
K: Bminor
|:fB B2fBdB|cBAB cdeg|fB B2fBdB|cBAc Ba^ga|
fB B2fBdB|cBAc Bcde|fece aece|fecA Bcde:|
fbba b2ab|c'bac' bafe|fbba b2ab|c'bac' b2ba|
fbba b2ab|c'bac' bafe|fece aece|fecA Bcde|
fbba b2ab|c'bac' bafe|fbba b2ab|c'bac' b2bc'|
d'c'bd' c'bac'|bfaf edcA|Bcde fgfe|dBcA B2de||

